X: 1
T: Waiting For Me
R: jig
M: 6/8
L: 1/8
K: Gmaj
|:DGF ~G3|FGA cAA|dgf d2e|~f2d cAF|
DGF ~G3|FGA cAA|dgf d2B|1 cAF ~G2E:|2 cAF ~G2B||
|:dgf ~g3|abg fed|cAA BGG|~c2B cAA|
[1 dgf ~g3|abg fed|cAA BGG|cAF ~G2B:|
[2 dgf ~g2a|bga fed|cAA BGG|cAF G2E||

